X:1
T:Safe in Jehovah’s Keeping
T:Daniel Brink Towner, 1912
T:Safe in Jehovah’s Keeping
T:Public Domain
T:Public Domain
C:Daniel Brink Towner, 1912
Z:Public Domain
%%score ( 1 2 ) ( 3 4 )
L:1/8
M:4/4
K:C
V:1 treble 
V:2 treble 
V:3 bass 
V:4 bass 
V:1
 [Ec]2 [EB][EA] [EG]2 [EA]2 | [CE]2 [CE]4 z2 | [Ec]2 [EB][EA] [EG]2 [EA]2 | [DF]6 z2 | %4
w: 1.~Safe in Je- ho- vah’s|keep- ing,|Led by His glor- ious|arm,|
w: 2.~Safe in Je- ho- vah’s|keep- ing,|Safe in temp- ta- tion’s|hour,|
w: 3.~Sure is Je- ho- vah’s|prom- ise,|Naught can my hope as-|sail;|
 [Fd]2 [Ec][Ec] [DB]2 [FA]2 | [EG]2 [Ec]4 [Ec]2 | [Ec]2 [EA]2 [GB]2 [^Fc]2 | [Fd]6 z2 | %8
w: God is Him- self my|ref- uge, A|pre- sent help from|harm.|
w: Safe in the midst of|per- ils, Kept|by Al- might- y|power.|
w: Here is my soul’s sure|an- chor, En-|tered with- in the|veil.|
 [Ec]2 [EB][EA] [EG]2 [EA]2 | [CE]2 [CE]4 z2 | [Ec]2 [EB][EA] [EG]2 [EA]2 | [DF]6 z2 | %12
w: Fears may at times dis-|tress me,|Griefs may my soul an-|noy;|
w: Safe when the tem- pest|rag- es,|Safe though the night be|long;|
w: Blest in His love e-|ter- nal,|What can I want be-|side!|
 [Fd]2 [Ec][Ec] [DB]2 [FA]2 | [EG]2 [Ec]4 z2 | [Ge]2 [Fd][Fd] [Ec]2 [FB]2 | [Ec]6 z2 || %16
w: God is my strength and|por- tion,|God my ex- ceed- ing|joy.|
w: E’en when my sky is|dark- est|God is my strength and|song.|
w: Safe through the blood that|cleans- eth,|Safe in the Christ that|died.|
"^Refrain" A2 A[AB] [Ac]2 [Ad]2 | [^Ge]2 [Ge]4 z2 | A2 A[AB] [Gc]2 [Ge]2 | [Gd]6 z2 | %20
w: ||||
w: Safe in Je- ho- vah’s|Led by|His glor- ious arm, God|self|
w: ||||
 [Ge]2 [Ge][Ge] [Gd]2 [Ge]2 | [Fg]2 [Ff]4 [Ff]2 | [Ge]2 [Ge]2 [Fd]2 [Fd]2 | [Ec]6 z2 |] %24
w: ||||
w: my ref- uge, A pre-|sent help from|harm. * * *||
w: ||||
V:2
 x8 | x8 | x8 | x8 | x8 | x8 | x8 | x8 | x8 | x8 | x8 | x8 | x8 | x8 | x8 | x8 || A2 A x5 | x8 | %18
w: ||||||||||||||||||
w: ||||||||||||||||keep- ing,||
 A2 A x5 | x8 | x8 | x8 | x8 | x8 |] %24
w: ||||||
w: is Him-||||||
V:3
 [C,G,]2 [C,G,][C,G,] [C,C]2 [C,C]2 | [C,G,]2 [C,G,]4 z2 | [C,G,]2 [C,G,][C,G,] [C,C]2 [C,C]2 | %3
 [G,B,]6 z2 | [G,B,]2 [G,C][G,C] G,2 [G,B,]2 | [C,C]2 [C,G,]4 [C,G,]2 | %6
 [A,,C]2 [C,C]2 [D,G,]2 [D,A,]2 | [G,B,]6 z2 | [C,C]2 [C,C][C,C] [C,C]2 [C,C]2 | %9
 [C,G,]2 [C,G,]4 z2 | [C,G,]2 [C,G,][C,G,] [C,C]2 [C,C]2 | [G,B,]6 z2 | %12
 [G,B,]2 [G,C][G,C] G,2 [G,B,]2 | [C,C]2 [C,G,]4 z2 | [C,C]2 [F,A,][F,A,] G,2 [G,,G,]2 | %15
 [C,G,]6 z2 || A,2 A,A, A,2 [F,A,]2 | [E,B,]2 [E,B,]4 z2 | A,2 A,[F,D] [E,C]2 [C,C]2 | [G,B,]6 z2 | %20
 C2 CC [B,D]2 [_B,C]2 | [A,C]2 [A,C]4 [_A,C]2 | [G,C]2 [G,C]2 [G,B,]2 G,2 | [C,G,]6 z2 |] %24
V:4
 x8 | x8 | x8 | x8 | x4 G,2 x2 | x8 | x8 | x8 | x8 | x8 | x8 | x8 | x4 G,2 x2 | x8 | x4 G,2 x2 | %15
 x8 || A,2 A,A, A,2 x2 | x8 | A,2 A, x5 | x8 | C2 CC x4 | x8 | x6 G,2 | x8 |] %24

